dist/assets/img/iconsfont/location.svg

<svg width="17" height="25" viewBox="0 0 17 25" fill="none" xmlns="http://www.w3.org/2000/svg">
<path d="M8.5 0C3.8131 0 0 3.85087 0 8.5842C0 10.1834 0.438647 11.7441 1.26881 13.0982L8.01616 24.0791C8.14541 24.2895 8.37311 24.4173 8.61801 24.4173C8.6199 24.4173 8.62174 24.4173 8.62363 24.4173C8.87065 24.4153 9.09883 24.2836 9.22571 24.0695L15.8011 12.9822C16.5854 11.6568 17 10.136 17 8.5842C17 3.85087 13.1869 0 8.5 0ZM14.5853 12.2477L8.60729 22.3278L2.47289 12.3444C1.78188 11.2174 1.40722 9.91714 1.40722 8.5842C1.40722 4.63976 4.59425 1.42116 8.5 1.42116C12.4058 1.42116 15.5881 4.63976 15.5881 8.5842C15.5881 9.87761 15.2381 11.1446 14.5853 12.2477Z" fill="black"/>
<path d="M8.49647 3.61737C5.89259 3.61737 3.77417 5.64581 3.77417 8.13909C3.77417 10.6164 5.85812 12.6608 8.49647 12.6608C11.1673 12.6608 13.2188 10.5892 13.2188 8.13909C13.2188 5.64581 11.1003 3.61737 8.49647 3.61737ZM8.49647 11.1636C6.75147 11.1636 5.33777 9.80544 5.33777 8.13909C5.33777 6.47691 6.76055 5.11456 8.49647 5.11456C10.2324 5.11456 11.6499 6.47691 11.6499 8.13909C11.6499 9.78113 10.2691 11.1636 8.49647 11.1636Z" fill="black"/>
</svg>

<svg width="17" height="25" fill="none" xmlns="http://www.w3.org/2000/svg"><path d="M8.5 0C3.813 0 0 3.85 0 8.584c0 1.6.439 3.16 1.269 4.514L8.016 24.08c.13.21.357.338.602.338h.006a.707.707 0 00.602-.348L15.8 12.983A8.64 8.64 0 0017 8.584C17 3.851 13.187 0 8.5 0zm6.085 12.248l-5.978 10.08-6.134-9.984a7.197 7.197 0 01-1.066-3.76c0-3.944 3.187-7.163 7.093-7.163s7.088 3.219 7.088 7.163a7.2 7.2 0 01-1.003 3.664z" fill="#000"/><path d="M8.496 3.617c-2.603 0-4.722 2.029-4.722 4.522 0 2.477 2.084 4.522 4.722 4.522 2.671 0 4.723-2.072 4.723-4.522 0-2.493-2.119-4.522-4.723-4.522zm0 7.547c-1.745 0-3.158-1.359-3.158-3.025 0-1.662 1.423-3.024 3.158-3.024 1.736 0 3.154 1.362 3.154 3.024 0 1.642-1.38 3.025-3.154 3.025z" fill="#000"/></svg>
